icon-themes/breeze_svg/cmd/sc_insertpagefield.svg

<svg viewBox="0 0 16 16" xmlns="http://www.w3.org/2000/svg">/&gt;<path d="m3 2v1 6 5h4v-1h-3v-4-6h6 2v4h1v-5h-3-6zm6 6v1h-1v1h1v2h-1v1h1v1h1v-1h2v1h1v-1h1v-1h-1v-2h1v-1h-1v-1h-1v1h-2v-1zm1 2h2v2h-2z" fill="#4d4d4d"/></svg>

<svg xmlns="http://www.w3.org/2000/svg" viewBox="0 0 16 16">
     />
 <path 
     style="fill:#4d4d4d" 
     d="M 3 2 L 3 3 L 3 9 L 3 14 L 7 14 L 7 13 L 4 13 L 4 9 L 4 3 L 10 3 L 12 3 L 12 7 L 13 7 L 13 2 L 10 2 L 4 2 L 3 2 z M 9 8 L 9 9 L 8 9 L 8 10 L 9 10 L 9 12 L 8 12 L 8 13 L 9 13 L 9 14 L 10 14 L 10 13 L 12 13 L 12 14 L 13 14 L 13 13 L 14 13 L 14 12 L 13 12 L 13 10 L 14 10 L 14 9 L 13 9 L 13 8 L 12 8 L 12 9 L 10 9 L 10 8 L 9 8 z M 10 10 L 12 10 L 12 12 L 10 12 L 10 10 z "
     />
 </svg>
